X:1
T:Bromely Assembly. JJo5.194
L:1/4
Q:3/4=100
M:6/4
I:linebreak $
K:D
V:1 treble 
V:1
 A | d2 d"^tr"{g} f3/2 e/ f | e2 e"^tr"{a} g3/2 f/ g | f a g f e d | c e d c B A | %5
 d2 d"^tr"{g} f3/2 e/ f | e2 e"^tr"{a} g3/2 f/ g |$ f b a"^tr"{a} ^g3/2 f/ g | a3 A2 :: a | %10
 a2 a b a b | g2 g a g a | f2 f f e d | c e d c B A |$ d2 d"^tr"{g} f3/2 e/ f | %15
 e2 e"^tr"{a} g3/2 f/ g | f e d{d} c3/2 B/ c | d3 D2 :| %18
